src/shipping-world.svg

<svg xmlns="http://www.w3.org/2000/svg" class="dibsvg-svg dibsvg-shipping-world" viewBox="0 0 518 518">
    <path d="M232 183.8c1-2.7 4.4-7.1 7.1-9.4l2-1.7V170l3.4 2.7h3.4l1.3-1.3 2-2c1-2 2.7-3.7 5.1-4.7.7 4 2.4 9.4 5.4 15.9 1.7 3.4 3 7.4 4 12.5-.3-.3-1.3-.7-3-1-1.7-.3-3-.7-3.7-1-15.2-2.6-24.3-4.9-27-7.3zm-69.8 50.6c1.7 3.7 2.4 6.4 2.7 7.4 3.4 7.8 4.7 14.8 4.4 21.6v1.3l.7.7c3.7 3.7 6.4 6.1 7.4 6.7 6.1 6.1 9.1 12.5 9.1 19.6v.7l1.3 1.3c5.1 5.1 15.9 11.5 33 19.2 5.7 1.3 11.5 3.4 17.5 6.4 4.7 9.8 12.5 14.5 23.3 14.5h3.4c1 3 0 7.1-3.4 11.5-4.7 3.7-6.7 9.8-6.1 17.5l1.3 1.3c5.4 8.4 9.8 13.8 13.2 15.9 2.4 1.3 5.1 2.4 8.1 2.7 0 1.3-.3 2.4-1.3 2.7-1.7 3-1.7 5.7 0 7.8l1.3 2h1.3c10.5 0 23.9-6.4 29.3-9.4 2.4-1.7 7.1-4.7 13.5-9.1l7.8-5.7 4.7-4.7c15.9-14.2 24.6-27.7 26.3-40.1l.7-.7-1.3-1.3c-1-.3-2.4-.7-4.7-.7-2.4 0-4 .3-5.1.7-1 0-1.7 0-2.4.3l-1 .3c-3.4-3.4-9.4-6.1-17.9-8.4-6.4-1-10.5-2.4-12.5-3.4v-1.3l-2 1.3h-9.1c-12.5 0-16.9 0-25.6 3-4.4 1.7-8.4 4-11.5 7.4h-7.1c-3 0-4.7-.7-4.7-2-.3-.3-.7-2.7-.7-6.4v-6.1c-1-3-4-4.7-9.8-5.7-2.4 0-3.7-.3-4-1.3 0-.3 0-1 .3-1.7s.3-1.3.3-1.7c1.7-5.7 1.3-9.4-1.3-11.8v-.7h-.7c-.3 0-1 0-1.7-.3-1-.3-1.3-.3-1.7-.3-2.7 0-6.1 1.3-9.8 4.4-1.3 1.3-3.4 2-5.7 2-4.4 0-6.7-2.4-6.7-7.1-1.3-8.1 1.7-16.5 5.4-17.9 2.7.3 6.1.7 9.8.7h6.1c3 0 6.1 1 9.8 2.7 3.4 5.7 8.1 9.1 14.5 9.8h1.3l1.3-.7c2.4-3 3-7.1 2-12.5v-5.4c.3-1.3 2-4 5.1-8.4 1.7-1 3-2.4 4.7-4.7v-2.4c1.3-17.2 3.4-19.6 15.9-26.6l1.3-.7v-3.7c0-1 1.3-3 3.7-6.1h3.4c1.7.3 3.7.7 6.1.7 5.7 0 9.4-1.3 11.8-4l.7-.7-.7-1.3c-3.4-9.1-13.8-17.5-31-25l-9.8-5.7v-11.4c9.1 3 16.2 4.7 21.6 4.7 1.7 0 3.4-.3 4.7-.7h1.3l.7-1.3c3-13.2-4-16.9-16.5-19.6-9.4-3-15.5-5.7-18.5-8.1l-.7.7h-7.8l-.7-.7c-5.1 4-9.1 6.4-16.5 7.8-3.7 1-6.4 1.3-7.4 1.3-2.4.3-12.8 1.7-23.6 4.7-5.4-1.7-8.8-2.7-9.8-2.7-7.4 0-16.9 5.7-28.3 17.2v.7l-1.3.7c-.3 1.7.7 3.4 1.3 4.4.3.3.7 1 1.3 1.3.7.3 1 .7 1.3 1 .3.3.7 1.3.7 3-.3 5.7-1.3 10.1-4.7 18.2-1.7 4-3 6.7-3.4 7.8-5.5 13.7-8.2 24.8-8.2 32.6zm-57.3 31.7c0-83.3 65.8-149.1 149.4-149.1 82.3 0 147.7 65.8 147.7 149.1 0 82.3-65.4 148.4-147.7 148.4-83.7 0-149.4-66.1-149.4-148.4zM0 265.4v-7.1c0-113.6 66.4-191.9 140.6-230C177.4 9.4 216.5 0 257.7 0c52.6 0 100.2 14.5 143 43.5l10.5 7.1 33-44.9 37.1 121.4-126.8 2 32.4-44.9-11.1-7.4c-36.1-23.3-75.5-34.7-118-34.7-68.5 0-133.9 33.7-174.7 90-28 40.1-41.5 81.9-40.1 126.1 0 10.8.7 22.3 2 34.1v2.7c1 1.3 1.3 3.4 1.3 6.1 1 3.7 1.3 6.4 1.3 8.4l1.3 4c.3 1.7.7 3.7 1.7 6.1.7 2.4 1 4 1.3 5.1 11.1 34.1 29 63.1 53.6 87.7C145 453.2 200 475.2 259 475.2c57.7 0 112-21.2 151.4-60.7 5.1-5.1 8.4-9.1 10.8-12.5 5.1-5.4 22.6-28.7 27-35.7 4.4 0 7.8 1 10.5 2.7l19.2 13.2c2.7 1.7 4.7 4.4 5.1 6.4.3 1 .3 1.7 0 2-4.7 7.8-14.5 20.9-29 39.8l-8.4 8.4-12.6 11.8C385.8 494.7 324.1 518 259 518c-70.1 0-134.9-26.3-183.1-74.5-33.4-34.1-55.6-73.9-66.8-119.4l-.7-2.7-.7-2c-2.7-10.8-4-17.2-4.4-18.9 0-1 0-2.7-.3-4.7s-.3-3.7-.3-4.7c-1.3-4.7-2-9.8-2-15.2 0-1 0-3-.3-5.4-.4-2.4-.4-4.1-.4-5.1z"/>
</svg>

<svg xmlns="http://www.w3.org/2000/svg" class="dibsvg-svg dibsvg-shipping-world" viewBox="0 0 518 518">
    <path d="M232,183.8 C233,181.1 236.4,176.7 239.1,174.4 L241.1,172.7 L241.1,170 L244.5,172.7 L247.9,172.7 L249.2,171.4 L251.2,169.4 C252.2,167.4 253.9,165.7 256.3,164.7 C257,168.7 258.7,174.1 261.7,180.6 C263.4,184 264.7,188 265.7,193.1 C265.4,192.8 264.4,192.4 262.7,192.1 C261,191.8 259.7,191.4 259,191.1 C243.8,188.5 234.7,186.2 232,183.8 L232,183.8 L232,183.8 Z M162.2,234.4 C163.9,238.1 164.6,240.8 164.9,241.8 C168.3,249.6 169.6,256.6 169.3,263.4 L169.3,264.7 L170,265.4 C173.7,269.1 176.4,271.5 177.4,272.1 C183.5,278.2 186.5,284.6 186.5,291.7 L186.5,292.4 L187.8,293.7 C192.9,298.8 203.7,305.2 220.8,312.9 C226.5,314.2 232.3,316.3 238.3,319.3 C243,329.1 250.8,333.8 261.6,333.8 L265,333.8 C266,336.8 265,340.9 261.6,345.3 C256.9,349 254.9,355.1 255.5,362.8 L256.8,364.1 C262.2,372.5 266.6,377.9 270,380 C272.4,381.3 275.1,382.4 278.1,382.7 C278.1,384 277.8,385.1 276.8,385.4 C275.1,388.4 275.1,391.1 276.8,393.2 L278.1,395.2 L279.4,395.2 C289.9,395.2 303.3,388.8 308.7,385.8 C311.1,384.1 315.8,381.1 322.2,376.7 L330,371 L334.7,366.3 C350.6,352.1 359.3,338.6 361,326.2 L361.7,325.5 L360.4,324.2 C359.4,323.9 358,323.5 355.7,323.5 C353.3,323.5 351.7,323.8 350.6,324.2 C349.6,324.2 348.9,324.2 348.2,324.5 L347.2,324.8 C343.8,321.4 337.8,318.7 329.3,316.4 C322.9,315.4 318.8,314 316.8,313 L316.8,311.7 L314.8,313 L305.7,313 C293.2,313 288.8,313 280.1,316 C275.7,317.7 271.7,320 268.6,323.4 L261.5,323.4 C258.5,323.4 256.8,322.7 256.8,321.4 C256.5,321.1 256.1,318.7 256.1,315 L256.1,308.9 C255.1,305.9 252.1,304.2 246.3,303.2 C243.9,303.2 242.6,302.9 242.3,301.9 C242.3,301.6 242.3,300.9 242.6,300.2 C242.9,299.5 242.9,298.9 242.9,298.5 C244.6,292.8 244.2,289.1 241.6,286.7 L241.6,286 L240.9,286 C240.6,286 239.9,286 239.2,285.7 C238.2,285.4 237.9,285.4 237.5,285.4 C234.8,285.4 231.4,286.7 227.7,289.8 C226.4,291.1 224.3,291.8 222,291.8 C217.6,291.8 215.3,289.4 215.3,284.7 C214,276.6 217,268.2 220.7,266.8 C223.4,267.1 226.8,267.5 230.5,267.5 L236.6,267.5 C239.6,267.5 242.7,268.5 246.4,270.2 C249.8,275.9 254.5,279.3 260.9,280 L262.2,280 L263.5,279.3 C265.9,276.3 266.5,272.2 265.5,266.8 L265.5,261.4 C265.8,260.1 267.5,257.4 270.6,253 C272.3,252 273.6,250.6 275.3,248.3 L275.3,245.9 C276.6,228.7 278.7,226.3 291.2,219.3 L292.5,218.6 L292.5,214.9 C292.5,213.9 293.8,211.9 296.2,208.8 L299.6,208.8 C301.3,209.1 303.3,209.5 305.7,209.5 C311.4,209.5 315.1,208.2 317.5,205.5 L318.2,204.8 L317.5,203.5 C314.1,194.4 303.7,186 286.5,178.5 L276.7,172.8 L276.7,166.1 L276.7,162.1 L276.7,161.4 C285.8,164.4 292.9,166.1 298.3,166.1 C300,166.1 301.7,165.8 303,165.4 L304.3,165.4 L305,164.1 C308,150.9 301,147.2 288.5,144.5 C279.1,141.5 273,138.8 270,136.4 L269.3,137.1 L261.5,137.1 L260.8,136.4 C255.7,140.4 251.7,142.8 244.3,144.2 C240.6,145.2 237.9,145.5 236.9,145.5 C234.5,145.8 224.1,147.2 213.3,150.2 C207.9,148.5 204.5,147.5 203.5,147.5 C196.1,147.5 186.6,153.2 175.2,164.7 L175.2,165.4 L173.9,166.1 C173.6,167.8 174.6,169.5 175.2,170.5 C175.5,170.8 175.9,171.5 176.5,171.8 C177.2,172.1 177.5,172.5 177.8,172.8 C178.1,173.1 178.5,174.1 178.5,175.8 C178.2,181.5 177.2,185.9 173.8,194 C172.1,198 170.8,200.7 170.4,201.8 C164.9,215.5 162.2,226.6 162.2,234.4 L162.2,234.4 L162.2,234.4 Z M104.9,266.1 C104.9,182.8 170.7,117 254.3,117 C336.6,117 402,182.8 402,266.1 C402,348.4 336.6,414.5 254.3,414.5 C170.6,414.5 104.9,348.4 104.9,266.1 L104.9,266.1 L104.9,266.1 Z M0,265.4 L0,258.3 C0,144.7 66.4,66.4 140.6,28.3 C177.4,9.4 216.5,0 257.7,0 C310.3,0 357.9,14.5 400.7,43.5 L411.2,50.6 L444.2,5.7 L481.3,127.1 L354.5,129.1 L386.9,84.2 L375.8,76.8 C339.7,53.5 300.3,42.1 257.8,42.1 C189.3,42.1 123.9,75.8 83.1,132.1 C55.1,172.2 41.6,214 43,258.2 C43,269 43.7,280.5 45,292.3 L45,295 C46,296.3 46.3,298.4 46.3,301.1 C47.3,304.8 47.6,307.5 47.6,309.5 L48.9,313.5 C49.2,315.2 49.6,317.2 50.6,319.6 C51.3,322 51.6,323.6 51.9,324.7 C63,358.8 80.9,387.8 105.5,412.4 C145,453.2 200,475.2 259,475.2 C316.7,475.2 371,454 410.4,414.5 C415.5,409.4 418.8,405.4 421.2,402 C426.3,396.6 443.8,373.3 448.2,366.3 C452.6,366.3 456,367.3 458.7,369 L477.9,382.2 C480.6,383.9 482.6,386.6 483,388.6 C483.3,389.6 483.3,390.3 483,390.6 C478.3,398.4 468.5,411.5 454,430.4 L445.6,438.8 L433,450.6 C385.8,494.7 324.1,518 259,518 C188.9,518 124.1,491.7 75.9,443.5 C42.5,409.4 20.3,369.6 9.1,324.1 L8.4,321.4 L7.7,319.4 C5,308.6 3.7,302.2 3.3,300.5 C3.3,299.5 3.3,297.8 3,295.8 C2.7,293.8 2.7,292.1 2.7,291.1 C1.4,286.4 0.7,281.3 0.7,275.9 C0.7,274.9 0.7,272.9 0.4,270.5 C0,268.1 0,266.4 0,265.4 L0,265.4 L0,265.4 Z"/>
</svg>
